X:505
T:Polska # 505
T: efter Melker Andersson
Q: 110
M:3/4
L:1/16
K: D
d2| d3A F2A2 d2f2| f2gf e4 e3e| e3c A2c2 e2f2| g2g2 f2af d2 :|
|: fg| a2a2 fafd d2ef| g2g2 egec A4|| a2a2 fafd d2ef| g2g2 egec A4|
A2BA G2AG F2A2| A3G E4D2:|

